src/icons/SVG/24px/Navigation_Arrow_Up_24px.svg

<svg width="24" height="24" viewBox="0 0 24 24" fill="none" xmlns="http://www.w3.org/2000/svg">
  <g id="Square"> </g>
  <g id="Icon">
<path id="Vector" d="M11 21C11 21.5523 11.4477 22 12 22C12.5523 22 13 21.5523 13 21H11ZM12 3L12.7071 2.29289C12.3166 1.90237 11.6834 1.90237 11.2929 2.29289L12 3ZM6.29289 7.29289C5.90237 7.68342 5.90237 8.31658 6.29289 8.70711C6.68342 9.09763 7.31658 9.09763 7.70711 8.70711L6.29289 7.29289ZM16.2929 8.70711C16.6834 9.09763 17.3166 9.09763 17.7071 8.70711C18.0976 8.31658 18.0976 7.68342 17.7071 7.29289L16.2929 8.70711ZM13 21V3H11V21H13ZM11.2929 2.29289L6.29289 7.29289L7.70711 8.70711L12.7071 3.70711L11.2929 2.29289ZM11.2929 3.70711L16.2929 8.70711L17.7071 7.29289L12.7071 2.29289L11.2929 3.70711Z" fill="black"/>
</g>
</svg>

<svg xmlns="http://www.w3.org/2000/svg" viewBox="0 0 24 24">
  <g id="Square"> </g>
  <path d="M11 21a1 1 0 102 0h-2zm1-18l.707-.707a1 1 0 00-1.414 0L12 3zM6.293 7.293a1 1 0 001.414 1.414L6.293 7.293zm10 1.414a1 1 0 101.414-1.414l-1.414 1.414zM13 21V3h-2v18h2zM11.293 2.293l-5 5 1.414 1.414 5-5-1.414-1.414zm0 1.414l5 5 1.414-1.414-5-5-1.414 1.414z"/>
</svg>
